remix/System/upload-fill.svg

<svg viewBox="0 0 24 24" xmlns="http://www.w3.org/2000/svg"><path fill="none" d="M0 0h24v24H0Z"/><path d="M3 19h18v2H3v-2Zm10-9v8h-2v-8H4l8-8 8 8h-7Z"/></svg>

<svg viewBox="0 0 24 24" fill="currentColor" xmlns="http://www.w3.org/2000/svg"><path d="M3 19H21V21H3V19ZM13 10V18H11V10H4L12 2L20 10H13Z"/></svg>
